remix/Logos/remixicon-fill.svg

<svg viewBox="0 0 24 24" fill="currentColor" xmlns="http://www.w3.org/2000/svg"><path d="M16.5301 17.5291L20.001 21H3.00098V4H13.6676V4.0078C13.7781 4.00262 13.8892 4 14.001 4C14.0464 4 14.0918 4.00043 14.137 4.0013C14.048 4.37162 14.001 4.76172 14.001 5.16667C14.001 7.48528 16.0157 9.5 18.6676 9.5C19.3921 9.5 20.0868 9.30333 20.6997 8.96217C20.8956 9.60697 21.001 10.2912 21.001 11C21.001 13.9742 19.1461 16.5151 16.5301 17.5291ZM18.501 7.5C17.1203 7.5 16.001 6.38071 16.001 5C16.001 3.61929 17.1203 2.5 18.501 2.5C19.8817 2.5 21.001 3.61929 21.001 5C21.001 6.38071 19.8817 7.5 18.501 7.5Z"/></svg>

<svg viewBox="0 0 24 24" xmlns="http://www.w3.org/2000/svg"><path fill="none" d="M0 0h24v24H0Z"/><path d="M16.53 17.53L20 21H3V4h10.667v0h-.001c.15-.01.31-.02.46-.01 -.09.37-.14.76-.14 1.16 0 2.319 2.01 4.334 4.66 4.334 .72 0 1.41-.2 2.032-.54l0-.001c1.06 3.5-.76 7.24-4.17 8.56ZM18.5 7.5v0C17.11 7.5 16 6.38 16 5c0-1.39 1.11-2.5 2.5-2.5v0C19.88 2.5 21 3.61 21 5c0 1.38-1.12 2.5-2.5 2.5Z"/></svg>
